fs/accessibility_48_filled.svg

<svg viewBox="0 0 48 48" fill="none" xmlns="http://www.w3.org/2000/svg" height="1em" width="1em">
  <path d="M24 14.5C26.8995 14.5 29.25 12.1495 29.25 9.25C29.25 6.35051 26.8995 4 24 4C21.1005 4 18.75 6.35051 18.75 9.25C18.75 12.1495 21.1005 14.5 24 14.5ZM11.7083 10.2575C9.5023 9.45467 7.0631 10.5919 6.26019 12.7976C5.45727 15.0032 6.59469 17.4421 8.80068 18.2449L16.6727 21.1096C16.8702 21.1815 17.0017 21.3692 17.0017 21.5794L17.0021 26.0179C17.0021 26.3708 16.9341 26.7206 16.8019 27.0479L12.3115 38.1602C11.4321 40.3365 12.4837 42.8135 14.6603 43.6928C16.837 44.5721 19.3144 43.5207 20.1938 41.3444L23.5374 33.0698C23.7059 32.6529 24.2961 32.6529 24.4646 33.0698L27.8083 41.3445C28.6877 43.5208 31.1651 44.5722 33.3417 43.6929C35.5183 42.8136 36.5699 40.3366 35.6905 38.1603L31.2033 27.0558C31.071 26.7284 31.003 26.3787 31.0031 26.0257L31.0036 21.5794C31.0037 21.3692 31.1351 21.1815 31.3327 21.1096L39.2047 18.2449C41.4107 17.4421 42.5481 15.0032 41.7452 12.7976C40.9423 10.5919 38.5031 9.45467 36.2971 10.2575L32.4851 11.6447C31.6653 11.943 31.0631 12.5406 30.6798 13.1887C29.3286 15.4727 26.8434 16.9999 24.0027 16.9999C21.162 16.9999 18.6767 15.4727 17.3256 13.1887C16.9422 12.5406 16.34 11.943 15.5202 11.6447L11.7083 10.2575Z" fill="#212121"/>
</svg>

<svg viewBox="0 0 48 48" fill="none" xmlns="http://www.w3.org/2000/svg" height="1em" width="1em">
  <path d="M24 14.5A5.25 5.25 0 1 0 24 4a5.25 5.25 0 0 0 0 10.5Zm-12.292-4.242a4.25 4.25 0 0 0-2.907 7.987l7.872 2.865a.5.5 0 0 1 .329.47v4.438c0 .353-.068.703-.2 1.03l-4.49 11.112a4.25 4.25 0 1 0 7.882 3.184l3.343-8.274a.5.5 0 0 1 .928 0l3.343 8.274a4.25 4.25 0 0 0 7.883-3.184l-4.488-11.104a2.747 2.747 0 0 1-.2-1.03v-4.447a.5.5 0 0 1 .33-.47l7.872-2.864a4.25 4.25 0 1 0-2.908-7.988l-3.812 1.388c-.82.298-1.422.896-1.805 1.544a7.747 7.747 0 0 1-6.677 3.81 7.747 7.747 0 0 1-6.677-3.81c-.384-.648-.986-1.246-1.806-1.544l-3.812-1.387Z" fill="#212121"/>
</svg>
